X: 41828
T: Village Of Cong, The
R: reel
M: 4/4
K: Cmajor
|GFDE FEFD|G2 dG eGdG|FEDC B,CDE|F2 cF dFcF|
G2GA G^FDA|GABc de^fg|a^fgf d^cde|fdcA G4:|
|:g2gd BGG2|f2fc AFF2|g2ga _bgag|^fgaf dgga|
_bga^f gfde|fage fdcA|G2 (3ABc dBcB|GFDE FEFD:|

